X: 1152
T: Reaping the Rye.
B:O'Neill's Music of Ireland
N:O'Neill's - 1152
Z:Transcribed by Stephen Foy (shf@access.digex.net)
Z:abc 1.6
M:9/8
R:slipjig
K:Em
B>cB B2 A GFE | G>AG B2 g f2 e | B>cB B2 A GFE | G2 A Be^d e2 :|
B>cB g2 g fed | B>cB g2 g f2 e | B>cB g2 g fga | g>fe Be^d e3 |
B>cB g2 g fed | B>cB gag fga | bag gfe fga | gab Be^d e3 ||


